!!!COM: Palestrina, Giovanni Perluigi da
!!!OPR: Missa In duplicibus minoribus (I)
!!!OMD: Credo
!!!OTL: Et iterum
**kern	**kern	**kern	**kern	**kern
*Ibass	*Itenor	*Itenor	*Icalto	*Icant
!Bassus	!Tenor 2	!Tenor 1	!Altus	!Cantus
*clefF4	*clefGv2	*clefGv2	*clefG2	*clefG2
*k[]	*k[]	*k[]	*k[]	*k[]
*E:phr	*E:phr	*E:phr	*E:phr	*E:phr
*M4/2	*M4/2	*M4/2	*M4/2	*M4/2
=108	=108	=108	=108	=108
1E	0r	1r	0r	0r
2F	.	2r	.	.
2G	.	2B	.	.
=109	=109	=109	=109	=109
2A	0r	2c	0r	1r
4G	.	2d	.	.
4F	.	.	.	.
2E	.	4e	.	2r
.	.	4d	.	.
[2A	.	4c	.	2e
.	.	4B	.	.
=110	=110	=110	=110	=110
2A]	1r	2c	0r	2f
1G	.	2B	.	2g
.	2r	2A	.	1a
2F#	2A	2A	.	.
=111	=111	=111	=111	=111
2G	2B	1G	0r	2r
2C	2c	.	.	2e
2r	2d	1r	.	2f
2E	4c	.	.	2g
.	4B	.	.	.
=112	=112	=112	=112	=112
2F	2A	0r	1r	2a
2G	2.d	.	.	4g
.	.	.	.	4f
2A	.	.	2r	2e
.	4c	.	.	.
2F	2c	.	2A	[2a
=113	=113	=113	=113	=113
2G	2B	0r	2B	2a]
2E	2G	.	2c	1g
[1D	1A	.	2.d	.
.	.	.	.	4f#
.	.	.	8c	4e
.	.	.	8B	.
=114	=114	=114	=114	=114
1D]	1d	1D	2A	2f#
.	.	.	1d	2f#
1r	2B	2.E	.	[1g
.	2e	.	[2c	.
.	.	4F	.	.
=115	=115	=115	=115	=115
1r	1d	2G	2c]	1g]
.	.	2G	2B	.
2r	1r	2A	2c	1r
2G	.	2B	4d	.
.	.	.	4e	.
=116	=116	=116	=116	=116
2F	2r	1c	2f	0r
2E	2G	.	1g	.
1D	2A	1F	.	.
.	2B	.	[2f	.
=117	=117	=117	=117	=117
1C	1c	1G	2f]	2r
.	.	.	2e	2g
1r	1F	1r	4d	2f
.	.	.	4c	.
.	.	.	[2c	2e
=118	=118	=118	=118	=118
1r	1G	1r	2c]	1d
.	.	.	2B	.
2r	1r	2r	[1e	1c
[2c	.	[2A	.	.
=119	=119	=119	=119	=119
2c]	0r	2A]	1e]	2r
2c	.	2A	.	1e
1A	.	2c	2r	.
.	.	2c	[2c	2e
=120	=120	=120	=120	=120
1G	0r	1.d	2c]	2g
.	.	.	2B	2g
1F	.	.	2A	1a
.	.	2c	2A	.
=121	=121	=121	=121	=121
2G	0r	2B	1d	2g
2D	.	1A	.	1f
1E	.	.	2c	.
.	.	2G	[2B	[2e
=122	=122	=122	=122	=122
2.F	0r	1A	2B]	2e]
.	.	.	1A	2d
4F	.	.	.	.
1E	.	1B	.	2e
.	.	.	2G#	[2e
=123	=123	=123	=123	=123
1AA	2r	1c	2A	2e]
.	2A	.	2c	2f
1r	2B	1r	2d	1g
.	[2c	.	[2e	.
=124	=124	=124	=124	=124
0r	2c]	0r	2e]	2e
.	2A	.	2c	2f
.	2B	.	2d	[1g
.	2c	.	[2e	.
=125	=125	=125	=125	=125
0r	4C	0r	4e]	1g]
.	4D	.	4d	.
.	4E	.	2c	.
.	4F	.	.	.
.	2G	.	2B	2d
.	4D	.	4A	[2f
.	4E	.	4G	.
=126	=126	=126	=126	=126
0r	4F	0r	4A	4f]
.	4G	.	4B	4e
.	2A	.	1c	4e
.	.	.	.	8d
.	.	.	.	8c
.	1G	.	.	1d
.	.	.	2B	.
=127	=127	=127	=127	=127
1r	0r	2r	4c	0e
.	.	.	4d	.
.	.	2A	4e	.
.	.	.	4f	.
1E	.	2B	2g	.
.	.	2c	2e	.
=128	=128	=128	=128	=128
2F#	2r	2A	1d	0r
2G	1G	2B	.	.
2E	.	2c	2e	.
2F#	2A	2d	[2d	.
=129	=129	=129	=129	=129
1G	2B	2.B	2d]	0r
.	2G	.	2e	.
.	.	4c	.	.
2.D	2A	4d	[1f	.
.	.	4e	.	.
.	[2B	[2d	.	.
4E	.	.	.	.
=130	=130	=130	=130	=130
1F	4B]	4d]	2f]	1r
.	4A	4c	.	.
.	1A	2A	2d	.
1E	.	1B	[1e	1b
.	2G#	.	.	.
=131	=131	=131	=131	=131
0AA	2.A	0A	0e]	2cc
.	.	.	.	2cc
.	4B	.	.	.
.	1c	.	.	1a
=132	=132	=132	=132	=132
[0E	[0B	[0G#	[0e	[0b
=133	=133	=133	=133	=133
0E]	0B]	0G#]	0e]	0b]
*-	*-	*-	*-	*-
!!!CDT: 1525/^1526/-1594/2/2
!!!OCY: Italia
!!!AGN: Mass (Paraphrase)
!!!AST: renaissance, vocal
!!!ASW: Gregorian Mass
!!!PWK: Masses, Book Mantuan I
!!!RNB: Cadence finals: A
!!!YOR: Le Opere Complete, v. 18, p. 42
!!!YOO: Rome, Italy: Fratelli Scalera
!!!END: 1992//
!!!EED: John Miller
!!!YEC: Copyright 2000, John Miller
!!!YEN: United States of America
!!!YEM: Rights to all derivative electronic formats reserved.
!!!YEM: Refer to licensing agreement for further details.
!!!YEM: This file must be accompanied by the licensing agreement.
!!!YEM: A copy of the licensing agreement may be found at http://www.music-cog.ohio-state.edu/HumdrumDatabases/Palestrina/license.txt
!!!EMD: converted to Humdrum by Bret Aarden
